usr/share/icons/biglinux-icons-material-dark/16/actions/object-columns.svg

<svg xmlns="http://www.w3.org/2000/svg" viewBox="0 0 16 16">
<defs id="defs3051">
<style id="current-color-scheme" type="text/css">
.ColorScheme-Text{color:#dedede}
</style>
</defs>
<path d="M2 2v12h3V2zm4 0v12h4V2zm5 0v12h3V2zM3 3h1v10H3zm4 0h2v10H7zm5 0h1v10h-1z" class="ColorScheme-Text" style="fill:currentColor;fill-opacity:1;stroke:none"/>
</svg>

<svg xmlns="http://www.w3.org/2000/svg" viewBox="0 0 16 16">
  <defs id="defs3051">
    <style type="text/css" id="current-color-scheme">
      .ColorScheme-Text {
        color:#dedede;
      }
      </style>
  </defs>
 <path style="fill:currentColor;fill-opacity:1;stroke:none" 
     d="M 2 2 L 2 14 L 5 14 L 5 2 L 2 2 z M 6 2 L 6 14 L 10 14 L 10 2 L 6 2 z M 11 2 L 11 14 L 14 14 L 14 2 L 11 2 z M 3 3 L 4 3 L 4 13 L 3 13 L 3 3 z M 7 3 L 9 3 L 9 13 L 7 13 L 7 3 z M 12 3 L 13 3 L 13 13 L 12 13 L 12 3 z "
     class="ColorScheme-Text"
     />
</svg>
